src/24/actions/format-align-vertical-center.svg

<svg xmlns="http://www.w3.org/2000/svg" viewBox="0 0 24 24"><path d="M11 3v4H9l3 3 3-3h-2V3h-2zm1 7H4v1h16v-1h-8zm-8 3v1h16v-1H4zm8 1l-3 3h2v4h2v-4h2l-3-3z" fill="currentColor" color="#5d656b"/></svg>

<svg xmlns="http://www.w3.org/2000/svg" viewBox="0 0 24 24">
  <defs id="defs3051">
    <style type="text/css" id="current-color-scheme">
      .ColorScheme-Text {
        color:#5d656b;
      }
      </style>
  </defs>
 <path style="fill:currentColor;fill-opacity:1;stroke:none" 
     d="M 11 3 L 11 7 L 9 7 L 12 10 L 15 7 L 13 7 L 13 3 L 11 3 z M 12 10 L 7 10 L 4 10 L 4 11 L 20 11 L 20 10 L 17 10 L 12 10 z M 4 13 L 4 14 L 5 14 L 8 14 L 12 14 L 19 14 L 20 14 L 20 13 L 19 13 L 5 13 L 4 13 z M 12 14 L 9 17 L 11 17 L 11 21 L 13 21 L 13 17 L 15 17 L 12 14 z "
     class="ColorScheme-Text"
     />
</svg>
